app/assets/images/remix_icon/health/hand-sanitizer-fill.svg

<svg viewBox="0 0 24 24" xmlns="http://www.w3.org/2000/svg"><path d="M17.0002 2V4L13.0002 3.999V6H16.0002V8C18.2093 8 20.0002 9.79086 20.0002 12V20C20.0002 21.1046 19.1048 22 18.0002 22H6.0002C4.89563 22 4.0002 21.1046 4.0002 20V12C4.0002 9.79086 5.79106 8 8.0002 8V6H11.0002V3.999L7.5002 4C6.8702 4 6.1302 4.49 5.3002 5.6L3.7002 4.4C4.8702 2.84 6.1302 2 7.5002 2H17.0002ZM13.0002 12H11.0002V14H9.0002V16H10.9992L11.0002 18H13.0002L12.9992 16H15.0002V14H13.0002V12Z"/></svg>

<svg xmlns="http://www.w3.org/2000/svg" viewBox="0 0 24 24">
    <g>
        <path fill="none" d="M0 0H24V24H0z"/>
        <path d="M17 2v2l-4-.001V6h3v2c2.21 0 4 1.79 4 4v8c0 1.105-.895 2-2 2H6c-1.105 0-2-.895-2-2v-8c0-2.21 1.79-4 4-4V6h3V3.999L7.5 4c-.63 0-1.37.49-2.2 1.6L3.7 4.4C4.87 2.84 6.13 2 7.5 2H17zm-4 10h-2v2H9v2h1.999L11 18h2l-.001-2H15v-2h-2v-2z"/>
    </g>
</svg>
